material/.icons/material/content-save-alert.svg

<svg xmlns="http://www.w3.org/2000/svg" viewBox="0 0 24 24"><path d="M22 12h-2V7h2m0 7h-2v2h2M14 4H4a2 2 0 00-2 2v12a2 2 0 002 2h12a2 2 0 002-2V8M4 6h8v3H4m6 9a2.5 2.5 0 112.5-2.5A2.5 2.5 0 0110 18z"/></svg>

<?xml version="1.0" encoding="UTF-8"?><!DOCTYPE svg PUBLIC "-//W3C//DTD SVG 1.1//EN" "http://www.w3.org/Graphics/SVG/1.1/DTD/svg11.dtd"><svg xmlns="http://www.w3.org/2000/svg" xmlns:xlink="http://www.w3.org/1999/xlink" version="1.1" id="mdi-content-save-alert" width="24" height="24" viewBox="0 0 24 24"><path d="M22 12H20V7H22M22 14H20V16H22M14 4H4A2 2 0 0 0 2 6V18A2 2 0 0 0 4 20H16A2 2 0 0 0 18 18V8M4 6H12V9H4M10 18A2.5 2.5 0 1 1 12.5 15.5A2.5 2.5 0 0 1 10 18Z" /></svg>
